!!!COM: Victor Masse/
!!!CNT: Francais
!!!TXO: Francais
!!!OTL: Ivonai2c
!!!LYR: Auguste Brizeux
!!!OPR: Chants Bretons
!!!ENC: Jacob Pegg
!!!YOR: Romantic French Song 1830-1870 -David Tunley, ed.,
!!!YOR: New York: Garland Publishing, Inc., 1995, Vol. 4
!!!ODT: 1853/
!!NB: Vocal melody and text only encoded.
!!NB: First instance of melodic material only encoded.
**kern	**silbe
*clef G2	*
*k[b-e-a-]	*
*M2/4	*
=1	=1
2r	.
=2	=2
16r	.
{16g	{J'ai-
16g	-me
16g	une
8f	fil-
16g	-le
16f	jo-
=3	=3
(8.e-	-li-,
16b-)	|
4b-}	-e,}
=4	=4
16r	.
{16g	{I-
16g	-vo-
16g	-na-
8f	-i2e
16g	est
16f	son
=5	=5
8e-}	nom,}
{16b-	{Qu'en
16b-	dit~
4b-}	~on?}
=6	=6
16r	.
{16b-	{C'e/-
16ee-	-tait
16b-	de/-
8dd	-ja\
16cc	ma
16a-	fo-
=7	=7
(8cc	-li-
4.b-)}	-e,}
=8	=8
16r	.
{16g	{Lors-
16g	-qu'el-
16g	-le en-
16f	-tre,
8b-	blonde
16f	en-
=9	=9
8e-}	-fant,}
{16b-	{au
16cc	cou-
4b-}	-vent}
=10	=10
{8ee-	{Lors-
16dd	-qu'el-
16cc	-le en-
16b-	-tre,
8g	blonde
16a-	en-
=11	=11
[4b-	-fant,
8b-]	|
16f	au
16b-	cou-
=12	=12
[4e-	-vent.
8e-]}	|}
8r	.
=13	=13
16r	.
{16g	{Non,
16g	dans
16g	mes
8f	bourgs
16g	de
16f	Cor-
=14	=14
(8.e-	-nou-
16b-)	-ail-
4b-}	-le,}
=15	=15
16r	.
{16g	{De
16g	Tre/-
16g	-me-
8f	-ven
16g	a\
16f	Kem-
=16	=16
8g	-per
16b-	sur
16b-	le
4b-}	Teir,}
=17	=17
16r	.
{16b-	{Il
16ee-	n'est
16b-	oeil
8dd	noir
16cc	qui
16a-	la
=18	=18
(8cc	vail-
4.b-)}	-le,}
=19	=19
16r	.
{16g	{Coeur
16g	plus
16g	ai-
16f	-mant
8b-	que
16f	le
=20	=20
8e-	sien,
16b-	je
16cc	crois
4b-}	bien}
=21	=21
{8ee-	{Coeur
16dd	plus
16cc	ai-
16b-	-mant
8g	que
16a	le
=22	=22
[4b-	sien,
8b-]	|
16f	je
16b-	crois
=23	=23
[4e-	bien.
8e-]}	|}
8r	.
=24	=24
16r	.
{16g	{Rien
16g	qu'en
16g	voy-
8f	-ant
16g	sa
16f	tour-
=25	=25
(8.e-	-nu-
16b-)	|
4b-}	-re,}
=26	=26
16r	.
{16g	{Les
16g	jeu-
16g	-nes
8f	fem-
16g	-mes
16f	de
=27	=27
8e-}	Scae2r,}
{16b-	{du
16b-	bel
4b-}	air,}
=28	=28
16r	.
{16b-	{Ont
16ee-	i-
16b-	-mi-
8dd	-te/
16cc	sa
16a-	pa-
=29	=29
(8cc	-ru-
4.b-)}	-re,}
=30	=30
16r	.
{16g	{Mais
16g	sa
16g	marche
16f	et
8b-	ses
16f	ap-
=31	=31
8e-}	-pas,}
{16b-	{Oh!
16cc	non
4b-}	pas!}
=32	=32
{8ee-	{mais
16dd	sa
16cc	mar-
16b-	-che et
8g	ses
16a-	ap-
=33	=33
[4b-	-pas,
8b-]	|
16f	oh!
16b-	non
=34	=34
[4e-	pas!
8e-]}	|}
8r	.
=35	=35
8r	.
{16f	{Pour
16en	e/-
16f	-cri-
16g	-re
16a-	cent
16f	vo-
=36	=36
(16f	-lu-
16e-)}	-mes}
{16f	{Trai-
16g	-tant
16a-	de
16g	ses
16a-	qual-
16cc	-i-
=37	=37
8b-	-te/s
16.a-	et
32g	beau-
4g}	-te/s,}
=38	=38
8r	.
{16f	{Quand
16en	j'au-
16f	-rais
16g	tou-
16a-	-tes
16f	les
=39	=39
(16f	plu-
16e-)	-mes
16f	dont
16g	s'ha-
16a-	-bil-
16g	-lent
16a-	les
16cc	oi-
=40	=40
(16b-	-seaux
32cc	|
32b-)	|
16.a-	gais
32g	et
4g}	beaux;}
=41	=41
8r	.
{16g	{Comme
16f#	une
16g	im-
16a-	-mense
16b-	e/-
16g	-cri-
=42	=42
(16g	-toire,
16f)}	|}
{16g	{Ou\
16a-	ma
16b-	plu-
16a-	-me ir-
16b-	-ait
16dd-	s'em-
=43	=43
8cc}	-plir}
{16.b-	{a\
32a-	plai-
4a-}	-sir,}
=44	=44
16r	.
{16g	{Quand
16f#	la
16g	mer
8a-	en
16b-	en-
16g	-cre
=45	=45
(16g	noir
16f)	|
16g	Pour-
16a-	-rait
16b-	se
16a-	chan-
16b-	-ger
16dd-	de-
=46	=46
(16cc	-main
32dd-	|
32cc)	|
16.b-	sous
32a-	ma
4a-}	main;}
=47	=47
{8b-	{Bref,
16an	quand
16b-	le
8dd	mon-
16cc	-de
16b-	lui~
=48	=48
(4a-	~me-
4g)}	-me}
=49	=49
16r	.
{16f	{Ser-
16en	-ait
16f	cou-
8g	-vert
16a-	tout
16cc	en-
=50	=50
8b-	-tier
16.dd	de
32cc	pa-
[4b-	-pier,
=51	=51
2b-]}	|}
=52	=52
16r	.
{16g	{Pour
16g	chan-
16g	-ter
8f	cel-
16g	-le
16f	que
=53	=53
(8.e-	j'ai-
16b-)	|
4b-}	-me,}
=54	=54
16r	.
{16g	{Le
16g	temps
16g	man-
16f	-que-
8b-	-rait
16f	tou-
=55	=55
8e-	-jours
16b-	a\
16cc	mes
4b-}	jours!}
=56	=56
{8ee-	{Le
16ff;	temps
16ee-	man-
16b-	-que-
8g	-rait
16a-	tou-
=57	=57
[4b-	-jours
8b-]	|
(16f	a\
16gq	|
16fq	|
8enq	|
8fq)	|
(fq	mes
16b-;)	|
=58	=58
[4e-	jours!
8e-]}	|}
8r;	.
*-	*-
